packages/foundations/assets/icons/functional/images/social/face_delighted.svg

<svg xmlns="http://www.w3.org/2000/svg" width="32" height="32" fill="none"><path fill="#1A1C1F" fill-rule="evenodd" d="M15.12 4.032c-1.759.182-3.011.524-4.378 1.196a11.92 11.92 0 0 0-5.52 5.519 11.97 11.97 0 0 0 1.427 12.761c.77.96 1.778 1.872 2.844 2.571 1.079.708 2.675 1.372 3.963 1.65a12.01 12.01 0 0 0 13.322-6.476 11.97 11.97 0 0 0-1.427-12.761 12.07 12.07 0 0 0-7.591-4.357c-.545-.082-2.211-.147-2.64-.103m2.56 1.802c4.017.685 7.273 3.662 8.292 7.579.278 1.071.389 2.541.272 3.627-.47 4.383-3.622 7.98-7.876 8.991-1.113.264-2.645.338-3.748.182-4.562-.649-8.072-4.11-8.815-8.693-.091-.561-.091-2.479 0-3.04.475-2.932 2.059-5.417 4.495-7.054 1.214-.817 2.8-1.427 4.18-1.609.235-.031.499-.066.587-.079.343-.048 2.156.018 2.613.096m-6.114 5.579c-.689.11-1.313.397-1.919.884-.586.47-.904 1.015-.815 1.394.139.589.689.944 1.244.804.179-.045.325-.146.606-.423.491-.482.827-.645 1.392-.674.531-.028.758.03 1.228.314.559.337.989.348 1.348.032.207-.182.387-.517.389-.724.002-.262-.132-.561-.343-.766-.253-.244-1.04-.645-1.496-.762-.397-.102-1.233-.142-1.634-.079m7.522.024c-.777.162-1.685.645-1.915 1.017-.404.654.017 1.455.792 1.507.28.018.33.002.702-.222.487-.294.791-.373 1.325-.342.531.031.874.201 1.37.682.339.329.608.48.851.48.32 0 .788-.319.915-.623a1.16 1.16 0 0 0-.031-.863c-.057-.111-.299-.386-.538-.611-.475-.447-1.135-.817-1.732-.971-.457-.117-1.311-.144-1.739-.054m-8.448 5.652c-.312.139-.613.584-.613.907 0 .19.247.952.46 1.414a7.3 7.3 0 0 0 1.286 1.846 5.87 5.87 0 0 0 2.669 1.558c.476.128.603.139 1.558.139s1.082-.011 1.558-.139c2.008-.542 3.616-2.137 4.276-4.243.077-.244.139-.508.138-.587-.003-.333-.332-.792-.655-.914-.266-.1-.51-.062-1.308.206-1.461.489-2.699.708-4.009.708s-2.548-.219-4.009-.708c-.81-.272-1.078-.309-1.351-.187m4 2.83c1.221.143 2.623.079 3.875-.176l.462-.094-.075.109c-.132.19-.674.609-1.036.799-.587.308-1.096.424-1.866.424s-1.279-.116-1.866-.424c-.362-.19-.904-.609-1.036-.799l-.075-.109.462.094c.254.052.774.131 1.155.176"/></svg>

<svg width="32" height="32" viewBox="0 0 32 32" fill="none" xmlns="http://www.w3.org/2000/svg"><path d="M15.120 4.032 C 13.361 4.214,12.109 4.556,10.742 5.228 C 8.306 6.424,6.413 8.318,5.222 10.747 C 3.181 14.911,3.736 19.872,6.649 23.508 C 7.419 24.468,8.427 25.380,9.493 26.079 C 10.572 26.787,12.168 27.451,13.456 27.729 C 18.856 28.892,24.340 26.226,26.778 21.253 C 28.819 17.089,28.264 12.128,25.351 8.492 C 23.477 6.153,20.746 4.586,17.760 4.135 C 17.215 4.053,15.549 3.988,15.120 4.032 M17.680 5.834 C 21.697 6.519,24.953 9.496,25.972 13.413 C 26.250 14.484,26.361 15.954,26.244 17.040 C 25.774 21.423,22.622 25.020,18.368 26.031 C 17.255 26.295,15.723 26.369,14.620 26.213 C 10.058 25.564,6.548 22.103,5.805 17.520 C 5.714 16.959,5.714 15.041,5.805 14.480 C 6.280 11.548,7.864 9.063,10.300 7.426 C 11.514 6.609,13.100 5.999,14.480 5.817 C 14.715 5.786,14.979 5.751,15.067 5.738 C 15.410 5.690,17.223 5.756,17.680 5.834 M11.566 11.413 C 10.877 11.523,10.253 11.810,9.647 12.297 C 9.061 12.767,8.743 13.312,8.832 13.691 C 8.971 14.280,9.521 14.635,10.076 14.495 C 10.255 14.450,10.401 14.349,10.682 14.072 C 11.173 13.590,11.509 13.427,12.074 13.398 C 12.605 13.370,12.832 13.428,13.302 13.712 C 13.861 14.049,14.291 14.060,14.650 13.744 C 14.857 13.562,15.037 13.227,15.039 13.020 C 15.041 12.758,14.907 12.459,14.696 12.254 C 14.443 12.010,13.656 11.609,13.200 11.492 C 12.803 11.390,11.967 11.350,11.566 11.413 M19.088 11.437 C 18.311 11.599,17.403 12.082,17.173 12.454 C 16.769 13.108,17.190 13.909,17.965 13.961 C 18.245 13.979,18.295 13.963,18.667 13.739 C 19.154 13.445,19.458 13.366,19.992 13.397 C 20.523 13.428,20.866 13.598,21.362 14.079 C 21.701 14.408,21.970 14.559,22.213 14.559 C 22.533 14.559,23.001 14.240,23.128 13.936 C 23.231 13.689,23.217 13.309,23.097 13.073 C 23.040 12.962,22.798 12.687,22.559 12.462 C 22.084 12.015,21.424 11.645,20.827 11.491 C 20.370 11.374,19.516 11.347,19.088 11.437 M10.640 17.089 C 10.328 17.228,10.027 17.673,10.027 17.996 C 10.027 18.186,10.274 18.948,10.487 19.410 C 10.760 20.005,11.301 20.781,11.773 21.256 C 12.527 22.016,13.424 22.539,14.442 22.814 C 14.918 22.942,15.045 22.953,16.000 22.953 C 16.955 22.953,17.082 22.942,17.558 22.814 C 19.566 22.272,21.174 20.677,21.834 18.571 C 21.911 18.327,21.973 18.063,21.972 17.984 C 21.969 17.651,21.640 17.192,21.317 17.070 C 21.051 16.970,20.807 17.008,20.009 17.276 C 18.548 17.765,17.310 17.984,16.000 17.984 C 14.690 17.984,13.452 17.765,11.991 17.276 C 11.181 17.004,10.913 16.967,10.640 17.089 M14.640 19.919 C 15.861 20.062,17.263 19.998,18.515 19.743 L 18.977 19.649 18.902 19.758 C 18.770 19.948,18.228 20.367,17.866 20.557 C 17.279 20.865,16.770 20.981,16.000 20.981 C 15.230 20.981,14.721 20.865,14.134 20.557 C 13.772 20.367,13.230 19.948,13.098 19.758 L 13.023 19.649 13.485 19.743 C 13.739 19.795,14.259 19.874,14.640 19.919 " fill="#1A1C1F" stroke="none" fill-rule="evenodd"></path></svg>
